X:8169
T:Gaillarde
C:anon.
N:1600
R:Galliard
Z:Transcribed by Frank Nordberg - http://www.musicaviva.com
F:http://abc.musicaviva.com/tunes/anon/anon-gaillarde-3m.abc
V:1 Program 1 110 %Fiddle
V:2 Program 1 41 alto %Viola
V:3 Program 1 42 bass %Cello
M:3/4
L:1/8
K:C
V:1
G2G2F2|E3DC2|B,2C2D2|E3DC2|G2G2F2|
V:2
E2E2D2|C2G,2C2|G,2A,2B,2|C2G,F,E,D,|C,2G,2A,B,|
V:3
C,D,E,F,G,2|C,2D,2E,2|G,2E,2D,2|C,4C,2|E,2E,2D,2|
%
V:1
E3DE2|C2C2B,2|C6::E3CE2|D4E^F|
V:2
C2G,2CB,|E,2A,2G,2|E,6::G,3G,C2|B,2CDC2|
V:3
C,2G,F,E,D,|A,2F,,2G,,2|C,6::C,3E,G,2|G,2A,B,A,2|
%
V:1
G3G^F2|G6|E4DE|F3ED2|B,2C2D2|
V:2
B,CD2A,2|B,2B,CD2|G,4B,2|A,4G,2|G,4G,2|
V:3
G,A,B,2D,2|G,,2G,A,B,G,|C,D,E,F,G,2|D,2C,2B,,A,,|G,,2A,,2B,,2|
%
V:1
E3DC2|E4DE|F3EDC|B,3CD2|C6:|
V:2
G,4G,2|CB,CB,A,2|A,G,A,G,A,2|G,4G,2|E,6:|
V:3
C,2D,2E,2|C,D,E,2F,2|D,E,F,2F,,2|G,,2A,,2B,,2|C,6:|
W:
W:
W:  From Musica Viva - http://www.musicaviva.com
W:  the Internet center for free sheet music downloads.
